src/pos-icons/auto-upload.svg

<svg height="24" viewBox="0 0 24 24" width="24" xmlns="http://www.w3.org/2000/svg"><path d="m5.35 12.65 1.15-3.65 1.15 3.65m-2.15-5.65-3.2 9h1.9l.7-2h3.2l.7 2h1.9l-3.2-9m3.5 13h11v-2h-11m3-2h5v-5h3l-5.5-5.5-5.5 5.5h3z"/></svg>

<?xml version="1.0" encoding="UTF-8"?><!DOCTYPE svg PUBLIC "-//W3C//DTD SVG 1.1//EN" "http://www.w3.org/Graphics/SVG/1.1/DTD/svg11.dtd"><svg xmlns="http://www.w3.org/2000/svg" xmlns:xlink="http://www.w3.org/1999/xlink" version="1.1" id="mdi-auto-upload" width="24" height="24" viewBox="0 0 24 24"><path d="M5.35,12.65L6.5,9L7.65,12.65M5.5,7L2.3,16H4.2L4.9,14H8.1L8.8,16H10.7L7.5,7M11,20H22V18H11M14,16H19V11H22L16.5,5.5L11,11H14V16Z" /></svg>
